X: 158
T: No_90_I_Could_See_the_Daylight_Coming.krn
N: Derived from No_90_I_Could_See_the_Daylight_Coming.krn
%%abc-version 2.0
%%abcx-abcm2ps-target-version 5.9.1 (29 Sep 2008)
%%abc-creator hum2abc beta
%%abcx-conversion-date 2019/03/15 08:37:56
%%humdrum-veritas 2690174952
%%humdrum-veritas-data 2874515909
%%linebreak <none>
%%barnumbers 0
L: 1/8
M: 2/4
K: Gb clef=bass
[K:clef=bass][M:2/4]E,7//B,// B,3/G,/ ||  
[M:5/8]G,3/F,/F,/E,/E,E, ||  
[M:2/4]F,/E,/E, E,3/C,/ | 
(3E,E,E,E,2 ||  
[M:3/8]E, z E,/E,/ ||  
[M:2/4](3G,F,F, (3F,E,F, | 
(3F,E,E, E,3/E,/ ||  
[M:3/8]E,z2 ||  
[M:2/4]E,2(3F,E,E, | 
(3E,E,E, (3E,E,C, | 
E,3/E,/ E,3/C,/ | 
E,2(3E,E,E, | 
E,2z2 :|]  



